X:268
T:Lay Me Down to Rest
C:Ron Inscore (Kenny & Amanda Smith Band, Pulaski, VA 12-5-98)
N:Transcribed by Steve Keating
R:bluegrass
L:1/8
Q:1/4=250
M:4/4
K:B
z8 | z2 c=d ^df eg | "B"eg f=a fa gf | ge g2 f/g/f =df | "E"e=d ^de =d=A cA | 
"B"G2 [BF][BF] [B2F2] E/=F/E | =DE ^DF DF DF | B2 =A{B}c Df gf | "F#"g/=a/g fg bf a_b | 
f2 ee Bc (3=d^df | "B"e=d e=a fe fa | f=a gf gf e=d | "E"de ge =d^d BG | "B"B2 =F/^F/B FE =D^D | 
=D^D B2 cd f2 | "F#"gf =d^d f=d ^df | "B"=dc BF BF =AF | ED B,E DE =F^F | B8 | 
z8 | z8 | 


